docs/struct.svg

<?xml version="1.0" encoding="UTF-8"?>
<svg id="svg7384" width="16.036" height="16" version="1.1" xmlns="http://www.w3.org/2000/svg" xmlns:cc="http://creativecommons.org/ns#" xmlns:dc="http://purl.org/dc/elements/1.1/" xmlns:osb="http://www.openswatchbook.org/uri/2009/osb" xmlns:rdf="http://www.w3.org/1999/02/22-rdf-syntax-ns#">
 <metadata id="metadata90">
  <rdf:RDF>
   <cc:Work rdf:about="">
    <dc:format>image/svg+xml</dc:format>
    <dc:type rdf:resource="http://purl.org/dc/dcmitype/StillImage"/>
    <dc:title>elementary Symbolic Icon Theme</dc:title>
   </cc:Work>
  </rdf:RDF>
 </metadata>
 <title id="title9167">elementary Symbolic Icon Theme</title>
 <rect id="rect4164-5" x="2" y="2" width="8" height="8" rx="1" ry="1" style="color-rendering:auto;color:#fbc02d;fill:#b3b3b3;filter-blend-mode:normal;filter-gaussianBlur-deviation:0;image-rendering:auto;isolation:auto;mix-blend-mode:normal;shape-rendering:auto;solid-color:#000000"/>
 <path id="rect4164-4-9" d="m6 4c-1.108 0-2 0.892-2 2v4h5c0.554 0 1-0.446 1-1v-5h-4z" style="color-rendering:auto;color:#fbc02d;image-rendering:auto;isolation:auto;mix-blend-mode:normal;opacity:.05;shape-rendering:auto;solid-color:#000000"/>
 <path id="rect4164-4" d="m6.5 5c-0.831 0-1.5 0.669-1.5 1.5v3.5h4c0.554 0 1-0.446 1-1v-4h-3.5z" style="color-rendering:auto;color:#fbc02d;image-rendering:auto;isolation:auto;mix-blend-mode:normal;opacity:.1;shape-rendering:auto;solid-color:#000000"/>
 <rect id="rect4164" x="6" y="6" width="8" height="8" rx="1" ry="1" style="color-rendering:auto;color:#fbc02d;fill:#b3b3b3;image-rendering:auto;isolation:auto;mix-blend-mode:normal;shape-rendering:auto;solid-color:#000000"/>
</svg>

<?xml version="1.0" encoding="UTF-8" standalone="no"?>
<svg
   xmlns:osb="http://www.openswatchbook.org/uri/2009/osb"
   xmlns:dc="http://purl.org/dc/elements/1.1/"
   xmlns:cc="http://creativecommons.org/ns#"
   xmlns:rdf="http://www.w3.org/1999/02/22-rdf-syntax-ns#"
   xmlns:svg="http://www.w3.org/2000/svg"
   xmlns="http://www.w3.org/2000/svg"
   height="16"
   id="svg7384"
   version="1.1"
   width="16.036167">
  <metadata
     id="metadata90">
    <rdf:RDF>
      <cc:Work
         rdf:about="">
        <dc:format>image/svg+xml</dc:format>
        <dc:type
           rdf:resource="http://purl.org/dc/dcmitype/StillImage" />
        <dc:title>elementary Symbolic Icon Theme</dc:title>
      </cc:Work>
    </rdf:RDF>
  </metadata>
  <title
     id="title9167">elementary Symbolic Icon Theme</title>
  <defs
     id="defs7386">
    <linearGradient
       osb:paint="solid"
       id="linearGradient4526">
      <stop
         id="stop4528"
         offset="0"
         style="stop-color:#ffffff;stop-opacity:1;" />
    </linearGradient>
  </defs>
  <g
     id="layer9"
     label="status"
     style="display:inline"
     transform="translate(-433.00039,12)" />
  <g
     id="layer10"
     style="display:inline"
     transform="translate(-433.00039,12)" />
  <g
     id="layer13"
     style="display:inline"
     transform="translate(-433.00039,12)" />
  <g
     id="layer14"
     transform="translate(-433.00039,12)" />
  <g
     id="layer15"
     style="display:inline"
     transform="translate(-433.00039,12)" />
  <g
     id="g71291"
     style="display:inline"
     transform="translate(-433.00039,12)" />
  <g
     id="layer9-2-2"
     style="display:inline"
     transform="translate(-701.76365,603.60207)" />
  <g
     id="layer10-0-6"
     style="display:inline"
     transform="translate(-701.76365,603.60207)" />
  <g
     id="layer11-5"
     transform="translate(-701.76365,603.60207)" />
  <g
     id="layer14-7-9"
     transform="translate(-701.76365,603.60207)" />
  <g
     id="layer15-5-2"
     style="display:inline"
     transform="translate(-701.76365,603.60207)" />
  <g
     id="g71291-8-4"
     style="display:inline"
     transform="translate(-701.76365,603.60207)" />
  <g
     id="g4953-5"
     style="display:inline"
     transform="translate(-701.76365,603.60207)" />
  <g
     id="layer12-4"
     style="display:inline"
     transform="translate(-701.76365,603.60207)" />
  <g
     id="layer10-2"
     style="display:inline"
     transform="translate(-288.02844,406.39676)" />
  <g
     id="layer11"
     transform="translate(-288.02844,406.39676)" />
  <g
     id="layer13-0"
     style="display:inline"
     transform="translate(-288.02844,406.39676)" />
  <g
     id="layer14-3"
     transform="translate(-288.02844,406.39676)" />
  <g
     id="layer15-1"
     style="display:inline"
     transform="translate(-288.02844,406.39676)" />
  <g
     id="g71291-5"
     style="display:inline"
     transform="translate(-288.02844,406.39676)" />
  <g
     id="g4953"
     style="display:inline"
     transform="translate(-288.02844,406.39676)" />
  <g
     id="layer12"
     style="display:inline"
     transform="translate(-288.02844,406.39676)" />
  <rect
     style="color:#fbc02d;clip-rule:nonzero;display:inline;overflow:visible;visibility:visible;opacity:1;isolation:auto;mix-blend-mode:normal;color-interpolation:sRGB;color-interpolation-filters:linearRGB;solid-color:#000000;solid-opacity:1;fill:#b3b3b3;fill-opacity:1;fill-rule:nonzero;stroke:none;stroke-width:1;stroke-linecap:butt;stroke-linejoin:miter;stroke-miterlimit:4;stroke-dasharray:none;stroke-dashoffset:0;stroke-opacity:1;marker:none;color-rendering:auto;image-rendering:auto;shape-rendering:auto;text-rendering:auto;enable-background:accumulate;filter-blend-mode:normal;filter-gaussianBlur-deviation:0"
     id="rect4164-5"
     width="8"
     height="8"
     x="2"
     y="2"
     rx="1"
     ry="1" />
  <path
     style="color:#fbc02d;clip-rule:nonzero;display:inline;overflow:visible;visibility:visible;opacity:0.05;isolation:auto;mix-blend-mode:normal;color-interpolation:sRGB;color-interpolation-filters:linearRGB;solid-color:#000000;solid-opacity:1;fill:#000000;fill-opacity:1;fill-rule:nonzero;stroke:none;stroke-width:1;stroke-linecap:butt;stroke-linejoin:miter;stroke-miterlimit:4;stroke-dasharray:none;stroke-dashoffset:0;stroke-opacity:1;marker:none;color-rendering:auto;image-rendering:auto;shape-rendering:auto;text-rendering:auto;enable-background:accumulate"
     d="M 6 4 C 4.892 4 4 4.892 4 6 L 4 10 L 9 10 C 9.554 10 10 9.554 10 9 L 10 4 L 6 4 z "
     id="rect4164-4-9" />
  <path
     style="color:#fbc02d;clip-rule:nonzero;display:inline;overflow:visible;visibility:visible;opacity:0.1;isolation:auto;mix-blend-mode:normal;color-interpolation:sRGB;color-interpolation-filters:linearRGB;solid-color:#000000;solid-opacity:1;fill:#000000;fill-opacity:1;fill-rule:nonzero;stroke:none;stroke-width:1;stroke-linecap:butt;stroke-linejoin:miter;stroke-miterlimit:4;stroke-dasharray:none;stroke-dashoffset:0;stroke-opacity:1;marker:none;color-rendering:auto;image-rendering:auto;shape-rendering:auto;text-rendering:auto;enable-background:accumulate"
     d="M 6.5 5 C 5.669 5 5 5.669 5 6.5 L 5 10 L 9 10 C 9.554 10 10 9.554 10 9 L 10 5 L 6.5 5 z "
     id="rect4164-4" />
  <rect
     style="color:#fbc02d;clip-rule:nonzero;display:inline;overflow:visible;visibility:visible;opacity:1;isolation:auto;mix-blend-mode:normal;color-interpolation:sRGB;color-interpolation-filters:linearRGB;solid-color:#000000;solid-opacity:1;fill:#b3b3b3;fill-opacity:1;fill-rule:nonzero;stroke:none;stroke-width:1;stroke-linecap:butt;stroke-linejoin:miter;stroke-miterlimit:4;stroke-dasharray:none;stroke-dashoffset:0;stroke-opacity:1;marker:none;color-rendering:auto;image-rendering:auto;shape-rendering:auto;text-rendering:auto;enable-background:accumulate"
     id="rect4164"
     width="8"
     height="8"
     x="6"
     y="6"
     rx="1"
     ry="1" />
</svg>
